X: 30096
T: Okehampton Pipe Band, The
R: waltz
M: 3/4
K: Amixolydian
|:e>d|c2ce dB|c2A2 a>e|f>e dc BA|c2B2 e>d|
c2ce dB|c2A2 a>e|f>e dc Bc|A4:|
|:a>g|f2 fa fd|e2c2a>e|f>e dc BA|
c2B2e2|c3c ef|B4 Bc|d2a>c Bc|A4:|

